X:124
T: FUCHS DU HAST DIE GANS GESTOHLEN
N: F0243
O: Europa, Mitteleuropa, Deutschland
R: Jugend - Lied, Kinder, Spiel
M: 2/4
L: 1/8
K: F
 | FGAB | cccc
dBfd | c2z2
dBfd | c2z2
cBBB | BAAA
AGGC | A2z2
cBBB | BAAA
AGGA | F2z2

